img/product-img-consumer.svg

<svg width="106" height="106" viewBox="0 0 106 106" fill="none" xmlns="http://www.w3.org/2000/svg">
<g id="Group 19">
<g id="Bitmap">
<circle id="Mask" cx="53" cy="53" r="53" fill="#36536B"/>
<mask id="mask0_0_5261" style="mask-type:alpha" maskUnits="userSpaceOnUse" x="0" y="0" width="106" height="106">
<circle id="Mask_2" cx="53" cy="53" r="53" fill="white"/>
</mask>
<g mask="url(#mask0_0_5261)">
</g>
</g>
<path id="Combined Shape" fill-rule="evenodd" clip-rule="evenodd" d="M72.948 45.3906V45.7291C72.948 46.2469 72.5282 46.6666 72.0105 46.6666H33.9375C33.4198 46.6666 33 46.2469 33 45.7291V45.3906C33 42.4134 35.4134 40 38.3906 40H67.5573C70.5345 40 72.948 42.4134 72.948 45.3906ZM33 50.8854V61.2239C33 64.2011 35.4134 66.6145 38.3906 66.6145H67.5573C70.5345 66.6145 72.948 64.2011 72.948 61.2239V50.8854C72.948 50.3677 72.5282 49.9479 72.0105 49.9479H33.9375C33.4198 49.9479 33 50.3677 33 50.8854ZM42.974 57.4479H40.474C39.5679 57.4479 38.8334 56.7134 38.8334 55.8073C38.8334 54.9012 39.5679 54.1666 40.474 54.1666H42.974C43.8801 54.1666 44.6146 54.9012 44.6146 55.8073C44.6146 56.7134 43.8801 57.4479 42.974 57.4479Z" fill="white"/>
</g>
</svg>

<svg width="106" height="106" fill="none" xmlns="http://www.w3.org/2000/svg"><circle cx="53" cy="53" r="53" fill="#36536B"/><mask id="a" style="mask-type:alpha" maskUnits="userSpaceOnUse" x="0" y="0" width="106" height="106"><circle cx="53" cy="53" r="53" fill="#fff"/></mask><path fill-rule="evenodd" clip-rule="evenodd" d="M73 45.4v.3c0 .5-.5 1-1 1H34a1 1 0 0 1-1-1v-.3c0-3 2.4-5.4 5.4-5.4h29.2c3 0 5.3 2.4 5.3 5.4Zm-40 5.5v10.3c0 3 2.4 5.4 5.4 5.4h29.2c3 0 5.3-2.4 5.3-5.4V51c0-.5-.4-1-.9-1H34a1 1 0 0 0-1 1Zm10 6.5h-2.5a1.6 1.6 0 1 1 0-3.2H43a1.6 1.6 0 0 1 0 3.2Z" fill="#fff"/></svg>
